dist/svgs/circle-cross-thin.svg

<svg xmlns="http://www.w3.org/2000/svg" viewBox="0 0 512 512"><path d="M256-1q53 0 99.5 20T437 74t55 81.5 20 99.5-20 99.5-55 81.5-81.5 55-99.5 20-99.5-20T75 436t-55-81.5T0 255t20-99.5T75 74t81.5-55T256-1zm107 275q8 0 13.5-5.5T382 255t-5.5-13.5T363 236h-88v-88q0-8-5.5-13.5T256 129t-13.5 5.5T237 148v88h-88q-8 0-13.5 5.5T130 255t6 14q5 5 13 5h88v88q0 8 5 13 6 6 14 6t13.5-5.5T275 362v-88h88z"/></svg>

<?xml version="1.0" encoding="UTF-8" standalone="no"?><svg   xmlns:svg="http://www.w3.org/2000/svg"   xmlns="http://www.w3.org/2000/svg"   version="1.1"   width="512"   height="512"   viewBox="0 0 512 512">  <path     d="M256 -1Q309 -1 355.5 19T437 74T492 155.5T512 255T492 354.5T437 436T355.5 491T256 511T156.5 491T75 436T20 354.5T0 255T20 155.5T75 74T156.5 19T256 -1zM363 274Q371 274 376.5 268.5T382 255T376.5 241.5T363 236H275V148Q275 140 269.5 134.5T256 129T242.5 134.5T237 148V236H149Q141 236 135.5 241.5T130 255T136 269Q141 274 149 274H237V362Q237 370 242 375Q248 381 256 381T269.5 375.5T275 362V274H363z"     id="circle-cross-thin" /></svg>
